Gruvbox-Plus-Dark/emotes/symbolic/face-crying-symbolic.svg

<svg width="16" height="16" version="1.1" xmlns="http://www.w3.org/2000/svg">
  <path d="m8 1c-3.87 0-7 3.13-7 7 0 3.86 3.13 7 7 7s7-3.14 7-7c0-3.87-3.13-7-7-7zm-3 4c0.55 0 1 0.45 1 1s-0.45 1-1 1-1-0.45-1-1 0.45-1 1-1zm6 0c0.55 0 1 0.45 1 1s-0.45 1-1 1-1-0.45-1-1 0.45-1 1-1zm1.1 1.9c0.3598 0.34 0.7021 0.698 1.05 1.05 0.27 0.27 0.45 0.63 0.45 1.05 0 0.82-0.67 1.5-1.5 1.5-0.82 0-1.5-0.68-1.5-1.5 0-0.42 0.18-0.78 0.45-1.05zm-4.1 3.1c1.33 0 2.6 0.53 3.53 1.47l-0.7 0.7c-0.75-0.75-1.77-1.17-2.83-1.17s-2.08 0.42-2.83 1.17l-0.7-0.7c0.93-0.94 2.2-1.47 3.53-1.47z" fill="#ebdbb2"/>
</svg>

<svg xmlns="http://www.w3.org/2000/svg" width="16" height="16" version="1.1">
 <path style="fill:#ebdbb2" d="M 8,1 C 4.13,1 1,4.13 1,8 1,11.86 4.13,15 8,15 11.87,15 15,11.86 15,8 15,4.13 11.87,1 8,1 Z M 5,5 C 5.55,5 6,5.45 6,6 6,6.55 5.55,7 5,7 4.45,7 4,6.55 4,6 4,5.45 4.45,5 5,5 Z M 11,5 C 11.55,5 12,5.45 12,6 12,6.55 11.55,7 11,7 10.45,7 10,6.55 10,6 10,5.45 10.45,5 11,5 Z M 12.1,6.9 12.31,7.1 13.15,7.95 C 13.42,8.22 13.6,8.58 13.6,9 13.6,9.82 12.93,10.5 12.1,10.5 11.28,10.5 10.6,9.82 10.6,9 10.6,8.58 10.78,8.22 11.05,7.95 L 11.9,7.1 Z M 8,10 C 9.33,10 10.6,10.53 11.53,11.47 L 10.83,12.17 C 10.08,11.42 9.06,11 8,11 6.94,11 5.92,11.42 5.17,12.17 L 4.47,11.47 C 5.4,10.53 6.67,10 8,10 Z"/>
</svg>
